static/img/kroki/8914a064dd355ef1dd7f291bdae4eb72.svg

<?xml version="1.0" encoding="us-ascii" standalone="no"?><svg xmlns="http://www.w3.org/2000/svg" xmlns:xlink="http://www.w3.org/1999/xlink" contentStyleType="text/css" height="374px" preserveAspectRatio="none" style="width:488px;height:374px;" version="1.1" viewBox="0 0 488 374" width="488px" zoomAndPan="magnify"><defs/><g><!--class azure_machine_learning_featureset_version--><g id="elem_azure_machine_learning_featureset_version"><rect codeLine="23" fill="#3D176E" height="39.7891" id="azure_machine_learning_featureset_version" rx="2.5" ry="2.5" style="stroke:#000D19;stroke-width:0.5;" width="412" x="7" y="328.58"/><ellipse cx="22" cy="348.4745" fill="#ADD1B2" rx="11" ry="11" style="stroke:#181818;stroke-width:1.0;"/><path d="M24.9688,354.1152 Q24.3906,354.412 23.75,354.5527 Q23.1094,354.7089 22.4063,354.7089 Q19.9063,354.7089 18.5781,353.0683 Q17.2656,351.412 17.2656,348.287 Q17.2656,345.162 18.5781,343.5058 Q19.9063,341.8495 22.4063,341.8495 Q23.1094,341.8495 23.75,342.0058 Q24.4063,342.162 24.9688,342.4589 L24.9688,345.1777 Q24.3438,344.5995 23.75,344.3339 Q23.1563,344.0527 22.5313,344.0527 Q21.1875,344.0527 20.5,345.1308 Q19.8125,346.1933 19.8125,348.287 Q19.8125,350.3808 20.5,351.4589 Q21.1875,352.5214 22.5313,352.5214 Q23.1563,352.5214 23.75,352.2558 Q24.3438,351.9745 24.9688,351.3964 L24.9688,354.1152 Z " fill="#000000"/><text fill="#D9B8FF" font-family="Helvetica" font-size="17" lengthAdjust="spacing" textLength="370" x="41" y="354.3598">azure_machine_learning_featureset_version</text></g><!--class azure_proxy_resource--><g id="elem_azure_proxy_resource"><rect codeLine="26" fill="#3D176E" height="39.7891" id="azure_proxy_resource" rx="2.5" ry="2.5" style="stroke:#000D19;stroke-width:0.5;" width="224" x="22" y="167.79"/><ellipse cx="37" cy="187.6845" fill="#ADD1B2" rx="11" ry="11" style="stroke:#181818;stroke-width:1.0;"/><path d="M39.9688,193.3252 Q39.3906,193.622 38.75,193.7627 Q38.1094,193.9189 37.4063,193.9189 Q34.9063,193.9189 33.5781,192.2783 Q32.2656,190.622 32.2656,187.497 Q32.2656,184.372 33.5781,182.7158 Q34.9063,181.0595 37.4063,181.0595 Q38.1094,181.0595 38.75,181.2158 Q39.4063,181.372 39.9688,181.6689 L39.9688,184.3877 Q39.3438,183.8095 38.75,183.5439 Q38.1563,183.2627 37.5313,183.2627 Q36.1875,183.2627 35.5,184.3408 Q34.8125,185.4033 34.8125,187.497 Q34.8125,189.5908 35.5,190.6689 Q36.1875,191.7314 37.5313,191.7314 Q38.1563,191.7314 38.75,191.4658 Q39.3438,191.1845 39.9688,190.6064 L39.9688,193.3252 Z " fill="#000000"/><text fill="#D9B8FF" font-family="Helvetica" font-size="17" lengthAdjust="spacing" textLength="182" x="56" y="193.5698">azure_proxy_resource</text></g><!--class microsoft_resource--><g id="elem_microsoft_resource"><rect codeLine="29" fill="#3D176E" height="39.7891" id="microsoft_resource" rx="2.5" ry="2.5" style="stroke:#000D19;stroke-width:0.5;" width="200" x="281" y="167.79"/><ellipse cx="296" cy="187.6845" fill="#ADD1B2" rx="11" ry="11" style="stroke:#181818;stroke-width:1.0;"/><path d="M298.9688,193.3252 Q298.3906,193.622 297.75,193.7627 Q297.1094,193.9189 296.4063,193.9189 Q293.9063,193.9189 292.5781,192.2783 Q291.2656,190.622 291.2656,187.497 Q291.2656,184.372 292.5781,182.7158 Q293.9063,181.0595 296.4063,181.0595 Q297.1094,181.0595 297.75,181.2158 Q298.4063,181.372 298.9688,181.6689 L298.9688,184.3877 Q298.3438,183.8095 297.75,183.5439 Q297.1563,183.2627 296.5313,183.2627 Q295.1875,183.2627 294.5,184.3408 Q293.8125,185.4033 293.8125,187.497 Q293.8125,189.5908 294.5,190.6689 Q295.1875,191.7314 296.5313,191.7314 Q297.1563,191.7314 297.75,191.4658 Q298.3438,191.1845 298.9688,190.6064 L298.9688,193.3252 Z " fill="#000000"/><text fill="#D9B8FF" font-family="Helvetica" font-size="17" lengthAdjust="spacing" textLength="158" x="315" y="193.5698">microsoft_resource</text></g><!--class resource--><g id="elem_resource"><rect codeLine="32" fill="#3D176E" height="39.7891" id="resource" rx="2.5" ry="2.5" style="stroke:#000D19;stroke-width:0.5;" width="113" x="324.5" y="7"/><ellipse cx="339.5" cy="26.8945" fill="#ADD1B2" rx="11" ry="11" style="stroke:#181818;stroke-width:1.0;"/><path d="M342.4688,32.5352 Q341.8906,32.832 341.25,32.9727 Q340.6094,33.1289 339.9063,33.1289 Q337.4063,33.1289 336.0781,31.4883 Q334.7656,29.832 334.7656,26.707 Q334.7656,23.582 336.0781,21.9258 Q337.4063,20.2695 339.9063,20.2695 Q340.6094,20.2695 341.25,20.4258 Q341.9063,20.582 342.4688,20.8789 L342.4688,23.5977 Q341.8438,23.0195 341.25,22.7539 Q340.6563,22.4727 340.0313,22.4727 Q338.6875,22.4727 338,23.5508 Q337.3125,24.6133 337.3125,26.707 Q337.3125,28.8008 338,29.8789 Q338.6875,30.9414 340.0313,30.9414 Q340.6563,30.9414 341.25,30.6758 Q341.8438,30.3945 342.4688,29.8164 L342.4688,32.5352 Z " fill="#000000"/><text fill="#D9B8FF" font-family="Helvetica" font-size="17" lengthAdjust="spacing" textLength="71" x="358.5" y="32.7798">resource</text></g><!--reverse link azure_proxy_resource to azure_machine_learning_featureset_version--><g id="link_azure_proxy_resource_azure_machine_learning_featureset_version"><path codeLine="35" d="M151.546,223.9566 C166.726,254.4766 188.23,297.69 203.44,328.25 " fill="none" id="azure_proxy_resource-backto-azure_machine_learning_featureset_version" style="stroke:#FFAF37;stroke-width:2.0;"/><polygon fill="none" points="143.53,207.84,146.1738,226.6286,156.9182,221.2845,143.53,207.84" style="stroke:#FFAF37;stroke-width:2.0;"/></g><!--reverse link microsoft_resource to azure_machine_learning_featureset_version--><g id="link_microsoft_resource_azure_machine_learning_featureset_version"><path codeLine="36" d="M347.6567,220.2023 C315.3567,250.7223 265.67,297.69 233.34,328.25 " fill="none" id="microsoft_resource-backto-azure_machine_learning_featureset_version" style="stroke:#FFAF37;stroke-width:2.0;"/><polygon fill="none" points="360.74,207.84,343.5359,215.8412,351.7775,224.5634,360.74,207.84" style="stroke:#FFAF37;stroke-width:2.0;"/></g><!--reverse link resource to microsoft_resource--><g id="link_resource_microsoft_resource"><path codeLine="37" d="M381,65.05 C381,95.57 381,136.9 381,167.46 " fill="none" id="resource-backto-microsoft_resource" style="stroke:#FFAF37;stroke-width:2.0;"/><polygon fill="none" points="381,47.05,375,65.05,387,65.05,381,47.05" style="stroke:#FFAF37;stroke-width:2.0;"/></g><!--SRC=[bP91Jm8n48Nl-okQS2O1YGA95oGnUY56l6-6TiesR3kRQHS4zR-xY9goku1UvtrzxysacL4eq1PXAopQ1R9F_Cgu0XYic33JPaeviUXe3Nemh8ltvC95O0OMnGFcQmn6GfruoOnSEVHUN4NI7SZLagbqwc0V69ol97GXegOvU3y9WSsY31YLKUF5IEiwMJVj35H_U8CDZ5WXVoEzNa_rntNaOjJPlN-9kTcXwCT7cr70Hir6n1TrjkMUY4es5ltHJtPy0gMCMuhhQFPywCGE-MW-pq3HPazho7qSumCoKjWME6riXUEHqiDM-F4KdCZzwGJiIiRKWioCmpH7O5UbfneXL8B7aAwhdsp8YRSa-JXwL32zRjCAef8bnheraicJ3gtgyQpLw_Qzs-t-lLlI4lXVYzh3fcFo2G00]--></g></svg>

<svg xmlns="http://www.w3.org/2000/svg" width="488" height="374" viewBox="0 0 488 374"><rect width="412" height="39.789" x="7" y="328.58" fill="#3D176E" rx="2.5" ry="2.5" style="stroke:#000d19;stroke-width:.5"/><circle cx="22" cy="348.474" r="11" fill="#ADD1B2" style="stroke:#181818;stroke-width:1"/><path d="M24.969 354.115q-.578.297-1.219.438-.64.156-1.344.156-2.5 0-3.828-1.64-1.312-1.657-1.312-4.782t1.312-4.781q1.328-1.656 3.828-1.656.703 0 1.344.156.656.156 1.219.453v2.719q-.625-.579-1.219-.844-.594-.281-1.219-.281-1.343 0-2.031 1.078-.687 1.062-.687 3.156t.687 3.172q.688 1.062 2.031 1.062.625 0 1.219-.265.594-.281 1.219-.86z"/><text x="41" y="354.36" fill="#D9B8FF" font-family="Helvetica" font-size="17" textLength="370">azure_machine_learning_featureset_version</text><rect width="224" height="39.789" x="22" y="167.79" fill="#3D176E" rx="2.5" ry="2.5" style="stroke:#000d19;stroke-width:.5"/><circle cx="37" cy="187.685" r="11" fill="#ADD1B2" style="stroke:#181818;stroke-width:1"/><path d="M39.969 193.325q-.578.297-1.219.438-.64.156-1.344.156-2.5 0-3.828-1.64-1.312-1.657-1.312-4.782t1.312-4.781q1.328-1.656 3.828-1.656.703 0 1.344.156.656.156 1.219.453v2.719q-.625-.578-1.219-.844-.594-.281-1.219-.281-1.343 0-2.031 1.078-.687 1.062-.687 3.156t.687 3.172q.688 1.062 2.031 1.062.625 0 1.219-.265.594-.281 1.219-.86z"/><text x="56" y="193.57" fill="#D9B8FF" font-family="Helvetica" font-size="17" textLength="182">azure_proxy_resource</text><rect width="200" height="39.789" x="281" y="167.79" fill="#3D176E" rx="2.5" ry="2.5" style="stroke:#000d19;stroke-width:.5"/><circle cx="296" cy="187.685" r="11" fill="#ADD1B2" style="stroke:#181818;stroke-width:1"/><path d="M298.969 193.325q-.578.297-1.219.438-.64.156-1.344.156-2.5 0-3.828-1.64-1.312-1.657-1.312-4.782t1.312-4.781q1.328-1.656 3.828-1.656.703 0 1.344.156.656.156 1.219.453v2.719q-.625-.578-1.219-.844-.594-.281-1.219-.281-1.344 0-2.031 1.078-.687 1.062-.687 3.156t.687 3.172q.688 1.062 2.031 1.062.625 0 1.219-.265.594-.281 1.219-.86z"/><text x="315" y="193.57" fill="#D9B8FF" font-family="Helvetica" font-size="17" textLength="158">microsoft_resource</text><rect width="113" height="39.789" x="324.5" y="7" fill="#3D176E" rx="2.5" ry="2.5" style="stroke:#000d19;stroke-width:.5"/><circle cx="339.5" cy="26.895" r="11" fill="#ADD1B2" style="stroke:#181818;stroke-width:1"/><path d="M342.469 32.535q-.578.297-1.219.438-.64.156-1.344.156-2.5 0-3.828-1.64-1.312-1.657-1.312-4.782t1.312-4.781q1.328-1.656 3.828-1.656.703 0 1.344.156.656.156 1.219.453v2.719q-.625-.578-1.219-.844-.594-.281-1.219-.281-1.344 0-2.031 1.078-.687 1.062-.687 3.156t.687 3.172q.688 1.062 2.031 1.062.625 0 1.219-.265.594-.281 1.219-.86z"/><text x="358.5" y="32.78" fill="#D9B8FF" font-family="Helvetica" font-size="17" textLength="71">resource</text><g fill="none"><path d="M151.546 223.957c15.18 30.52 36.684 73.733 51.894 104.293" style="stroke:#ffaf37;stroke-width:2"/><path d="m143.53 207.84 2.644 18.789 10.744-5.344z" style="stroke:#ffaf37;stroke-width:2"/></g><g fill="none"><path d="M347.657 220.202c-32.3 30.52-81.987 77.488-114.317 108.048" style="stroke:#ffaf37;stroke-width:2"/><path d="m360.74 207.84-17.204 8.001 8.241 8.722z" style="stroke:#ffaf37;stroke-width:2"/></g><path fill="none" d="M381 65.05v102.41m0-120.41-6 18h12z" style="stroke:#ffaf37;stroke-width:2"/></svg>
